X:69
T:Old Favourite, The
S:The Session: https://thesession.org/tunes/56#setting53958
C:Traditional
R:jig
K:G
M:6/8
L:1/8
Q:1/4=113
|:"G"B2(B B)AB|"G"dBA GBc|"G"d2 (d d2)B|"D"ded B2A|
|"G"B2 (B B)AB|"G"dBA GBc|"D"ded cBA|1 "G"GD B, G,2 A:|2 "G"G3 GBd||
|"Em"g3 fgf|"C"efe edB|"D"d2 (d d2) B|"D"ded ABd|
|"Em"g2 (f f) gf|"C"efe edB|"D"dfe dBA|"G"G3 G (3 Bcd|
|"G"g (3Bcd "D"f (3Bcd|"C"efe edB|"D"d2 (d d2) B|"D"ded ABd|
|"Em"g2 (f f) gf|"C"efe edB|"D"dfe dfe|"D"dfe dBA|

